src/main/resources/icons/AllIcons/general/questionDialog.svg

<!-- Copyright 2000-2021 JetBrains s.r.o. Use of this source code is governed by the Apache 2.0 license that can be found in the LICENSE file. -->
<svg xmlns="http://www.w3.org/2000/svg" width="32" height="32" viewBox="0 0 32 32">
  <path fill="#389FD6" fill-rule="evenodd" d="M16,30 C23.7319865,30 30,23.7319865 30,16 C30,8.2680135 23.7319865,2 16,2 C8.2680135,2 2,8.2680135 2,16 C2,23.7319865 8.2680135,30 16,30 Z M14,26 L18,26 L18,22 L14,22 L14,26 Z M16,6 C12,6 9,8.31666667 9,12 L13,12 C13,10.1666667 13.9375,9 16,9 C18.0625,9 19,10.1666667 19,12 C19,15.3333333 14,14.5833333 14,20 L18,20 C18,16.25 23,16.1666667 23,12 C23,8.31666667 20,6 16,6 Z"/>
</svg>

<svg xmlns="http://www.w3.org/2000/svg" width="32" height="32" viewBox="0 0 32 32"><rect id="frame" width="32" height="32" fill="none"/><path fill="#389FD6" fill-rule="evenodd" d="M16 30c7.732 0 14-6.268 14-14S23.732 2 16 2 2 8.268 2 16s6.268 14 14 14zm-2-4h4v-4h-4v4zm2-20c-4 0-7 2.317-7 6h4c0-1.833.938-3 3-3 2.063 0 3 1.167 3 3 0 3.333-5 2.583-5 8h4c0-3.75 5-3.833 5-8 0-3.683-3-6-7-6z"/></svg>
